X:1
T:Der Jäger
T:Felix Mendelssohn Bartholdy
T:Altdeutsches Volkslied
T:Der Jäger
T:Aus des Knaben Wunderhorn
T:CPDL - Creative Commons Attribution Non Commercial 3.0
T:CPDL - Creative Commons Attribution Non Commercial 3.0
C:Felix Mendelssohn Bartholdy
Z:Altdeutsches Volkslied
Z:CPDL - Creative Commons Attribution Non Commercial 3.0
%%score [ ( 1 2 ) ( 3 4 ) ]
L:1/8
Q:1/4=110
M:6/8
K:A
V:1 treble-8 nm="Tenor"
V:2 treble-8 
V:3 bass nm="Bass"
V:4 bass 
V:1
!mf!"^Lebhaft und heiter" E |!<(! A2 A c2!<)! d |!>(! e3!>)! !breath!d2!mf! c | B2 d !>!dcB | %4
w: 1.~Mit|Lust tät ich aus-|rei- ten durch|ei- nen grü- * nen|
w: 2.~Die|A- bend- strah- len|brei- ten das|Gold- netz ü- * ber'n|
w: 3.~In's|Ju- bel- horn ich|sto- ße, das|Fir- ma- ment _ wird|
"^cresc." (c3 e3-) |!f! e6- |!>(! e3-!>)! e z!mf! E |!<(! A2 A!<)! c2 d | %8
w: Wald, _|_|* * da-|rin, da hör' ich|
w: Wald, _|_|* * und|ihm ent- ge- gen|
w: klar; _|_|* * ich|stei- ge von dem|
!>(! e3!>)! !breath!d2!mf! d | c2 =g !>!gfe |"^cresc." (d3 a3-) |!f! a6- |!>(! a3-!>)! a z!p! f | %13
w: sin- gen, drei|Vög- lein wohl- * ge-|stalt. _|_|* * Und|
w: strei- ten die|Vög- lein, dass _ es|schallt. _|_|* * Ich|
w: Ros- se, und|zähl' die Vö- * gel-|schaar. _|_|* * Die|
 !>!f2 B B2"^dim." c | (d2 d) !breath!d2!p! f | !>!f2"^dim." B B2 c | d3- !breath!d2!mf!!mf! E | %17
w: sind es nicht drei|Vö- ge- lein, so|sind's drei Mäd- chen|fein; _ soll|
w: ste- he auf der|Lau- * er, ich|harr' auf dunk- le|Nacht; _ es|
w: Ein' ist schwarz- braun|An- * ne, die|And- re Bär- be-|lein; _ die|
!<(! A2 A c2!<)! d |!>(! e3!>)! !breath!d2!f! c | !>!B2 f f!>(!ed!>)! | %20
w: mir die Ein' nicht|wer- den, so|gilt's das Le- * ben|
w: hat der A- bend-|schau- er ~ihr|Herz wohl weich _ ge-|
w: Dritt' hat kei- nen|Na- men, ~die|soll mein ei- * gen|
 !breath!c3"^Gebunden"!p! e3 |!<(! !>!f3 e3!<)! | (a3 e3 |!>(! c3) B3!>)! | A3- A !fermata!z |] %25
w: mein, so|gilt's das|Le- *|* ben|mein. _|
w: macht, ~ihr|Herz wohl|weich _|_ ge-|macht. _|
w: sein, ~die|soll mein|ei- *|* gen|sein! _|
V:2
 E | A2 A E2 E | A3 A2 A | G2 B BAG | (A3 e)dc | B2 d !>!dcB | c3- c x E | A2 A E2 E | A3 A2 F | %9
w: ||||Wald, _ _ durch|ei- nen grü- * nen|Wald, _ _|_ _ _ _||
w: ||||Wald, _ _ das|Gold- netz ü- * ber'n|Wald, _ _|_ _ _ _||
w: ||||klar, _ _ das|Fir- ma- ment _ wird|klar; _ _|_ _ _ _||
 A2 c c2 c | (d3 f)ed | c2 e !>!edc | d3- d x d | d2 ^G G2 A | (B2 B) B2 d | d2 G G2 A | B3- B2 E | %17
w: * * wohl- ge-|stalt, _ _ drei|Vög- lein wohl- * ge-|stalt. _ _|_ _ _ _||||
w: * * dass es|schallt, _ _ die|Vög- lein, dass _ es|schallt. _ _|_ _ _ _||||
w: * * Vö- gel-|schaar, _ _ und|zähl' die Vö- * gel-|schaar. _ _|_ _ _ _||||
 A2 A A2 B | c3 d2 A | ^G2 d dcB | A3 B3 | c3 B3 | (c3 B3 | A3) G3 | A3- A x |] %25
w: ||||||||
w: ||||||||
w: ||||||||
V:3
!mf! E, |!<(! E,2 E, A,2!<)! A, |!>(! =G,3!>)! !breath!F,2!mf! F, | ^G,2 G, !>!E,2 E, | %4
"^cresc." (E,3 C)B,A, |!f! G,2 B, !>!B,A,G, |!>(! A,3-!>)! A, z!mf! E, |!<(! E,2 E,!<)! A,2 A, | %8
!>(! =G,3!>)! !breath!F,2!mf! A, | =G,2 E, !>!B,A,G, |"^cresc." (F,3 A,)=G,F, | %11
!f! E,2 =G, !>!A,F,E, |!>(! F,3-!>)! F, z!p! A, | !>!^G,2 B, B,2"^dim." A, | %14
 (G,2 G,) !breath!G,2!p! G, | !>!G,2"^dim." B, B,2 A, | G,3- !breath!G,2!mf!!mf! E, | %17
!<(! A,2 A, A,2!<)! A, |!>(! A,3!>)! !breath!A,2!f! A, | !>!B,2 G, G,!>(!A,B,!>)! | %20
 !breath!C3"^Gebunden"!p! G,3 |!<(! !>!A,3 G,3!<)! | (A,3 G,3 |!>(! A,3) E,3!>)! | %24
 C,3- C, !fermata!z |] %25
V:4
 E, | C,2 C, A,,2 B,, | C,3 D,2 ^D, | E,2 E, E,2 E, | A,,3- A,,2 C, | E,2 E, E,2 E, | %6
w: ||||||
w: ||||||
w: ||||||
 A,,3- A,, x E, | C,2 C, A,,2 B,, | C,3 D,2 D, | E,2 A,, A,,2 A,, | D,3- D,2 F, | A,2 A, A,,2 A,, | %12
w: ||||||
w: ||||||
w: ||||||
 D,3- D, x D, | E,2 E, E,2 E, | (E,2 E,) E,2 E, | E,2 E, E,2 E, | E,3- E,2 E, | A,2 A, A,2 A, | %18
w: ||||||
w: ||||||
w: ||||||
 =G,3 F,2 E, | E,2 E, E,F,G, | A,3 E,3 | [E,,E,]6- | [E,,E,]6- | [E,,E,]3 [E,,E,]3 | A,,3- A,, x |] %25
w: ||* das|Le-||* ben|mein. _|
w: ||* wohl|weich|_|* ge-|macht. _|
w: ||* mein|ei-||* gen|sein! _|

